icons/logo-gist-24.svg

<svg xmlns="http://www.w3.org/2000/svg" width="38" height="24" viewBox="0 0 38 24"><path d="M7.05 13.095v-1.5h5.28v8.535c-1.17.555-2.925.96-5.385.96C1.665 21.09 0 17.055 0 12.045S1.695 3 6.945 3c2.43 0 3.96.495 4.92.99v1.575c-1.83-.75-3-1.095-4.92-1.095-3.855 0-5.22 3.315-5.22 7.59s1.365 7.575 5.205 7.575c1.335 0 2.97-.105 3.795-.51v-6.03H7.05Zm16.47 1.035h.045c3.33.3 4.125 1.425 4.125 3.345 0 1.815-1.14 3.615-4.71 3.615-1.125 0-2.745-.285-3.495-.585v-1.41c.705.255 1.83.54 3.495.54 2.43 0 3.09-1.035 3.09-2.13 0-1.065-.33-1.815-2.655-2.01-3.39-.3-4.095-1.5-4.095-3.12 0-1.665 1.08-3.465 4.38-3.465 1.095 0 2.34.135 3.375.585v1.41c-.915-.3-1.83-.54-3.405-.54-2.325 0-2.82.855-2.82 2.01 0 1.035.42 1.56 2.67 1.755Zm12.87-4.995v1.275h-3.63v7.305c0 1.425.795 2.01 2.25 2.01.3 0 .63 0 .915-.045v1.335c-.255.045-.75.075-1.035.075-1.965 0-3.75-.9-3.75-3.195v-7.5H28.8v-.72l2.34-.66V5.85l1.62-.465v3.75h3.63ZM16.635 9.09v9.615c0 .81.285 1.05 1.005 1.05v1.335c-1.71 0-2.58-.705-2.58-2.58V9.09h1.575Zm.375-3.495c0 .66-.51 1.17-1.17 1.17a1.14 1.14 0 0 1-1.155-1.17c0-.66.48-1.17 1.155-1.17s1.17.51 1.17 1.17Z"/></svg>

<svg width="38" height="24" viewBox="0 0 38 24">
  <path
    d="M7.05 13.095V11.595H12.33V20.13C11.16 20.685 9.405 21.09 6.945 21.09C1.665 21.09 0 17.055 0 12.045C0 7.035 1.695 3 6.945 3C9.375 3 10.905 3.495 11.865 3.99V5.565C10.035 4.815 8.865 4.47 6.945 4.47C3.09 4.47 1.725 7.785 1.725 12.06C1.725 16.335 3.09 19.635 6.93 19.635C8.265 19.635 9.9 19.53 10.725 19.125V13.095H7.05ZM23.52 14.13H23.565C26.895 14.43 27.69 15.555 27.69 17.475C27.69 19.29 26.55 21.09 22.98 21.09C21.855 21.09 20.235 20.805 19.485 20.505V19.095C20.19 19.35 21.315 19.635 22.98 19.635C25.41 19.635 26.07 18.6 26.07 17.505C26.07 16.44 25.74 15.69 23.415 15.495C20.025 15.195 19.32 13.995 19.32 12.375C19.32 10.71 20.4 8.91 23.7 8.91C24.795 8.91 26.04 9.045 27.075 9.495V10.905C26.16 10.605 25.245 10.365 23.67 10.365C21.345 10.365 20.85 11.22 20.85 12.375C20.85 13.41 21.27 13.935 23.52 14.13ZM36.39 9.135V10.41H32.76V17.715C32.76 19.14 33.555 19.725 35.01 19.725C35.31 19.725 35.64 19.725 35.925 19.68V21.015C35.67 21.06 35.175 21.09 34.89 21.09C32.925 21.09 31.14 20.19 31.14 17.895V10.395H28.8V9.675L31.14 9.015V5.85L32.76 5.385V9.135H36.39ZM16.635 9.09V18.705C16.635 19.515 16.92 19.755 17.64 19.755V21.09C15.93 21.09 15.06 20.385 15.06 18.51V9.09H16.635ZM17.01 5.595C17.01 6.255 16.5 6.765 15.84 6.765C15.6865 6.76707 15.5341 6.73811 15.3921 6.67986C15.25 6.6216 15.1212 6.53525 15.0133 6.42599C14.9055 6.31672 14.8208 6.1868 14.7644 6.044C14.7079 5.9012 14.6809 5.74848 14.685 5.595C14.685 4.935 15.165 4.425 15.84 4.425C16.515 4.425 17.01 4.935 17.01 5.595Z"
  />
</svg>
